src/assets/outline/ChartSuccess.svg

<svg width="24" height="24" viewBox="0 0 24 24"  xmlns="http://www.w3.org/2000/svg">
<path d="M13 22.75H9C3.57 22.75 1.25 20.43 1.25 15V9C1.25 3.57 3.57 1.25 9 1.25H15C20.43 1.25 22.75 3.57 22.75 9V13C22.75 13.41 22.41 13.75 22 13.75C21.59 13.75 21.25 13.41 21.25 13V9C21.25 4.39 19.61 2.75 15 2.75H9C4.39 2.75 2.75 4.39 2.75 9V15C2.75 19.61 4.39 21.25 9 21.25H13C13.41 21.25 13.75 21.59 13.75 22C13.75 22.41 13.41 22.75 13 22.75Z" />
<path d="M13 22.75H9C3.57 22.75 1.25 20.43 1.25 15V9C1.25 3.57 3.57 1.25 9 1.25H15C20.43 1.25 22.75 3.57 22.75 9V13C22.75 13.41 22.41 13.75 22 13.75C21.59 13.75 21.25 13.41 21.25 13V9C21.25 4.39 19.61 2.75 15 2.75H9C4.39 2.75 2.75 4.39 2.75 9V15C2.75 19.61 4.39 21.25 9 21.25H13C13.41 21.25 13.75 21.59 13.75 22C13.75 22.41 13.41 22.75 13 22.75Z" />
<path d="M7 14.6905C6.59 14.6905 6.25 14.3505 6.25 13.9405V10.7305C6.25 10.3205 6.59 9.98047 7 9.98047C7.41 9.98047 7.75 10.3205 7.75 10.7305V13.9405C7.75 14.3605 7.41 14.6905 7 14.6905Z" />
<path d="M17 14.6905C16.59 14.6905 16.25 14.3505 16.25 13.9405V10.7305C16.25 10.3205 16.59 9.98047 17 9.98047C17.41 9.98047 17.75 10.3205 17.75 10.7305V13.9405C17.75 14.3605 17.41 14.6905 17 14.6905Z" />
<path d="M13 22.75H9C3.57 22.75 1.25 20.43 1.25 15V9C1.25 3.57 3.57 1.25 9 1.25H15C20.43 1.25 22.75 3.57 22.75 9V13C22.75 13.41 22.41 13.75 22 13.75C21.59 13.75 21.25 13.41 21.25 13V9C21.25 4.39 19.61 2.75 15 2.75H9C4.39 2.75 2.75 4.39 2.75 9V15C2.75 19.61 4.39 21.25 9 21.25H13C13.41 21.25 13.75 21.59 13.75 22C13.75 22.41 13.41 22.75 13 22.75Z" />
<path d="M17.5798 21.7502C17.3798 21.7502 17.1898 21.6702 17.0498 21.5302L15.4698 19.9602C15.1798 19.6702 15.1698 19.1902 15.4698 18.9002C15.7598 18.6102 16.2398 18.6002 16.5298 18.9002L17.5398 19.9002L20.4398 16.5102C20.7098 16.1902 21.1798 16.1602 21.4998 16.4302C21.8098 16.7002 21.8498 17.1702 21.5798 17.4902L18.1598 21.4902C18.0198 21.6502 17.8298 21.7402 17.6198 21.7502C17.5998 21.7502 17.5898 21.7502 17.5798 21.7502Z" />
<path d="M12 14.25C11.59 14.25 11.25 13.91 11.25 13.5V10.5C11.25 10.09 11.59 9.75 12 9.75C12.41 9.75 12.75 10.09 12.75 10.5V13.5C12.75 13.91 12.41 14.25 12 14.25Z" />
</svg>

<?xml version="1.0" encoding="UTF-8"?>
<svg width="24" height="24" viewBox="0 0 24 24" xmlns="http://www.w3.org/2000/svg">
 <path d="m13 22.75h-4c-5.43 0-7.75-2.32-7.75-7.75v-6c0-5.43 2.32-7.75 7.75-7.75h6c5.43 0 7.75 2.32 7.75 7.75v4c0 0.41-0.34 0.75-0.75 0.75s-0.75-0.34-0.75-0.75v-4c0-4.61-1.64-6.25-6.25-6.25h-6c-4.61 0-6.25 1.64-6.25 6.25v6c0 4.61 1.64 6.25 6.25 6.25h4c0.41 0 0.75 0.34 0.75 0.75s-0.34 0.75-0.75 0.75z"/>
 <path d="m13 22.75h-4c-5.43 0-7.75-2.32-7.75-7.75v-6c0-5.43 2.32-7.75 7.75-7.75h6c5.43 0 7.75 2.32 7.75 7.75v4c0 0.41-0.34 0.75-0.75 0.75s-0.75-0.34-0.75-0.75v-4c0-4.61-1.64-6.25-6.25-6.25h-6c-4.61 0-6.25 1.64-6.25 6.25v6c0 4.61 1.64 6.25 6.25 6.25h4c0.41 0 0.75 0.34 0.75 0.75s-0.34 0.75-0.75 0.75z"/>
 <path d="m7 14.69c-0.41 0-0.75-0.34-0.75-0.75v-3.21c0-0.41 0.34-0.75003 0.75-0.75003s0.75 0.34003 0.75 0.75003v3.21c0 0.42-0.34 0.75-0.75 0.75z"/>
 <path d="m17 14.69c-0.41 0-0.75-0.34-0.75-0.75v-3.21c0-0.41 0.34-0.75003 0.75-0.75003s0.75 0.34003 0.75 0.75003v3.21c0 0.42-0.34 0.75-0.75 0.75z"/>
 <path d="m13 22.75h-4c-5.43 0-7.75-2.32-7.75-7.75v-6c0-5.43 2.32-7.75 7.75-7.75h6c5.43 0 7.75 2.32 7.75 7.75v4c0 0.41-0.34 0.75-0.75 0.75s-0.75-0.34-0.75-0.75v-4c0-4.61-1.64-6.25-6.25-6.25h-6c-4.61 0-6.25 1.64-6.25 6.25v6c0 4.61 1.64 6.25 6.25 6.25h4c0.41 0 0.75 0.34 0.75 0.75s-0.34 0.75-0.75 0.75z"/>
 <path d="m17.58 21.75c-0.2 0-0.39-0.08-0.53-0.22l-1.58-1.57c-0.29-0.29-0.3-0.77 0-1.06 0.29-0.29 0.77-0.3 1.06 0l1.01 1 2.9-3.39c0.27-0.32 0.74-0.35 1.06-0.08 0.31 0.27 0.35 0.74 0.08 1.06l-3.42 4c-0.14 0.16-0.33 0.25-0.54 0.26h-0.04z"/>
 <path d="m12 14.25c-0.41 0-0.75-0.34-0.75-0.75v-3c0-0.41 0.34-0.75 0.75-0.75s0.75 0.34 0.75 0.75v3c0 0.41-0.34 0.75-0.75 0.75z"/>
</svg>
